X:1
T:St. Patrick Was a Gentleman
M:2/4
L:1/8
K:D
 F| DA, D3/2 E/2| FB B3/2 B/2| AF DE| F E2 F| DA, D3/2 E/2| FB B3/2 B/2|\
 AF E3/2 F/2| E D2| A| dc B3/2 A/2| Bc dB| AF D3/2 E/2| F E2 A| d3/2 c/2 BA|\
 Bc d B/2B/2| AF EF| ED| FE| DA, D3/2 E/2| FB B3/2 B/2| AF DE| F E2 F|\
 DA, D3/2 E/2| FB B3/2 B/2| AF EF| E D2||
